!!!OTL: Kaisari nokkur maetur mann
!!!ARE: Europa, Island
!!!SCT: L0031A
!!!YEM: Copyright 1995, estate of Helmut Schaffrath.
**kern
*ICvox
*Ivox
*M2/4
*k[f#]
*G:
{4.cc
16cc
16cc
=1
4.cc
8cc
=2
8cc
8b
4a
=3
2g}
=4
{4g
4g
=5
4.g
8g
=6
2b-
=7
4a
4r}
=8
{4.cc
8cc
=9
4.cc
8cc
=10
8cc
8b
4a
=11
2g}
=12
{4.g
8g
=13
4.g
8a
=14
4.a
8b-
=15
2g}
=16
{4.b-
8b-
=17
4.g
8g
=18
4.a
8a
=19
4.cc
8cc
=20
4.cc
8b
=21
2a}
==
!!!AGN: Lied
!! Island, bis 1850 im Volksmund erhalten.
!!!ONB: ESAC (Essen Associative Code) Database: ERK5
!!!AMT: simple duple
!!!AIN: vox
!!!EED: Helmut Schaffrath
!!!EEV: 1.0
*-
